!!!ONR: No. 26
!! From Harold Courlander, "Haiti Singing"
!! Chapel Hill: University of North Carolina Press, 1939
!! Copyright University of North Carolina Press
!!!ENC: D. Huron
**kern
*clefG2
*k[]
*M2/4
=1-
8r
8a
8a
8a
=
8f
8a
8d
16r
16f
=
8a
8a
12a
12d
12f
=
8e
8d
8d
8A
=
8d
8f
8f
8f
=
12d
12f
12f
24e
24d
24e
24d
24d
[24A
=
8A]
16r
16B
8d
8d
=
2d
==
*-
